public/images/icons/JS.svg

<svg width="104" height="104" viewBox="0 0 104 104" fill="none" xmlns="http://www.w3.org/2000/svg">
<rect width="104" height="104" rx="5" fill="#FFDE31"/>
<path d="M46.3438 50.1875H53.2344V78.1055C53.2344 81.9154 52.0404 84.9414 49.6523 87.1836C47.2826 89.4258 44.1471 90.5469 40.2461 90.5469C36.0898 90.5469 32.8815 89.4987 30.6211 87.4023C28.3607 85.306 27.2305 82.3893 27.2305 78.6523H34.1211C34.1211 80.7669 34.6406 82.362 35.6797 83.4375C36.737 84.4948 38.2591 85.0234 40.2461 85.0234C42.1055 85.0234 43.582 84.4128 44.6758 83.1914C45.7878 81.9518 46.3438 80.2474 46.3438 78.0781V50.1875ZM81.9727 79.7461C81.9727 77.9961 81.3529 76.6471 80.1133 75.6992C78.8919 74.7513 76.6771 73.7943 73.4688 72.8281C70.2604 71.862 67.7083 70.7865 65.8125 69.6016C62.1849 67.3229 60.3711 64.3516 60.3711 60.6875C60.3711 57.4792 61.6745 54.8359 64.2812 52.7578C66.9062 50.6797 70.306 49.6406 74.4805 49.6406C77.2513 49.6406 79.7214 50.151 81.8906 51.1719C84.0599 52.1927 85.7643 53.651 87.0039 55.5469C88.2435 57.4245 88.8633 59.5117 88.8633 61.8086H81.9727C81.9727 59.7305 81.3164 58.1081 80.0039 56.9414C78.7096 55.7565 76.8503 55.1641 74.4258 55.1641C72.1654 55.1641 70.4062 55.6471 69.1484 56.6133C67.9089 57.5794 67.2891 58.9284 67.2891 60.6602C67.2891 62.1185 67.9635 63.3398 69.3125 64.3242C70.6615 65.2904 72.8854 66.2383 75.9844 67.168C79.0833 68.0794 81.5716 69.1276 83.4492 70.3125C85.3268 71.4792 86.7031 72.8281 87.5781 74.3594C88.4531 75.8724 88.8906 77.6497 88.8906 79.6914C88.8906 83.0091 87.6146 85.6523 85.0625 87.6211C82.5286 89.5716 79.0833 90.5469 74.7266 90.5469C71.8464 90.5469 69.194 90.0182 66.7695 88.9609C64.3633 87.8854 62.4857 86.4089 61.1367 84.5312C59.806 82.6536 59.1406 80.4661 59.1406 77.9688H66.0586C66.0586 80.2292 66.806 81.9792 68.3008 83.2188C69.7956 84.4583 71.9375 85.0781 74.7266 85.0781C77.1328 85.0781 78.9375 84.5951 80.1406 83.6289C81.362 82.6445 81.9727 81.3503 81.9727 79.7461Z" fill="black"/>
</svg>

<svg width="104" height="104" fill="none" xmlns="http://www.w3.org/2000/svg"><rect width="104" height="104" rx="5" fill="#FFDE31"/><path d="M46.344 50.188h6.89v27.918c0 3.81-1.194 6.835-3.582 9.078-2.37 2.242-5.505 3.363-9.406 3.363-4.156 0-7.364-1.048-9.625-3.145-2.26-2.096-3.39-5.013-3.39-8.75h6.89c0 2.115.52 3.71 1.559 4.785 1.057 1.058 2.58 1.586 4.566 1.586 1.86 0 3.336-.61 4.43-1.832 1.112-1.24 1.668-2.944 1.668-5.113v-27.89zm35.629 29.558c0-1.75-.62-3.099-1.86-4.047-1.221-.948-3.436-1.905-6.644-2.87-3.209-.967-5.76-2.042-7.656-3.227-3.628-2.28-5.442-5.25-5.442-8.915 0-3.208 1.303-5.851 3.91-7.93 2.625-2.077 6.025-3.116 10.2-3.116 2.77 0 5.24.51 7.41 1.53 2.169 1.022 3.873 2.48 5.113 4.376 1.24 1.878 1.86 3.965 1.86 6.262h-6.891c0-2.078-.657-3.7-1.97-4.868-1.293-1.184-3.153-1.777-5.577-1.777-2.26 0-4.02.483-5.278 1.45-1.24.965-1.859 2.314-1.859 4.046 0 1.459.674 2.68 2.023 3.664 1.35.966 3.573 1.914 6.672 2.844 3.1.911 5.588 1.96 7.465 3.144 1.878 1.167 3.254 2.516 4.13 4.047.874 1.513 1.312 3.29 1.312 5.332 0 3.318-1.276 5.961-3.829 7.93-2.533 1.95-5.979 2.926-10.335 2.926-2.88 0-5.533-.529-7.958-1.586-2.406-1.076-4.283-2.552-5.632-4.43-1.331-1.877-1.996-4.065-1.996-6.562h6.918c0 2.26.747 4.01 2.242 5.25 1.495 1.24 3.636 1.86 6.426 1.86 2.406 0 4.21-.484 5.414-1.45 1.221-.985 1.832-2.279 1.832-3.883z" fill="#000"/></svg>
